svg/lineagerec.svg

<?xml version="1.0" encoding="UTF-8" standalone="no"?>
<svg
   xmlns:dc="http://purl.org/dc/elements/1.1/"
   xmlns:cc="http://creativecommons.org/ns#"
   xmlns:rdf="http://www.w3.org/1999/02/22-rdf-syntax-ns#"
   xmlns:svg="http://www.w3.org/2000/svg"
   xmlns="http://www.w3.org/2000/svg"
   viewBox="0 0 192 192"
   height="192"
   width="192"
   id="svg4708"
   version="1.1">
  <metadata
     id="metadata4714">
    <rdf:RDF>
      <cc:Work
         rdf:about="">
        <dc:format>image/svg+xml</dc:format>
        <dc:type
           rdf:resource="http://purl.org/dc/dcmitype/StillImage" />
        <dc:title></dc:title>
      </cc:Work>
    </rdf:RDF>
  </metadata>
  <defs
     id="defs4712" />
  <path
     id="rect4718"
     d="m 21.126951,31.628908 c -7.39237,0 -13.3437495,5.95138 -13.3437495,13.34375 V 147.02734 c 0,7.39237 5.9513795,13.34375 13.3437495,13.34375 H 170.87305 c 7.39237,0 13.34375,-5.95138 13.34375,-13.34375 V 44.972658 c 0,-7.39237 -5.95138,-13.34375 -13.34375,-13.34375 z M 55.599607,62.888674 A 33.111965,33.111965 0 0 1 88.710936,96.000002 33.111965,33.111965 0 0 1 81.146482,117.0293 H 110.8457 a 33.111965,33.111965 0 0 1 -7.55664,-21.029298 33.111965,33.111965 0 0 1 33.11133,-33.111328 33.111965,33.111965 0 0 1 33.11133,33.111328 33.111965,33.111965 0 0 1 -33.11133,33.111328 H 58.068357 v -0.12305 a 33.111965,33.111965 0 0 1 -2.46875,0.12305 A 33.111965,33.111965 0 0 1 22.488279,96.000002 33.111965,33.111965 0 0 1 55.599607,62.888674 Z m 0,12.083984 C 44.589337,74.972871 34.572475,84.989734 34.572264,96.000002 34.571825,107.01067 44.588924,117.02909 55.599607,117.0293 66.610289,117.02909 76.62739,107.01067 76.626951,96.000002 76.626737,84.989734 66.609873,74.972871 55.599607,74.972658 Z m 80.800783,0 c -11.01027,2.12e-4 -21.02713,10.017078 -21.02734,21.027344 -4.4e-4,11.010678 10.01665,21.029088 21.02734,21.029298 11.01068,-2.1e-4 21.02778,-10.01862 21.02734,-21.029298 -2.1e-4,-11.010266 -10.01708,-21.027131 -21.02734,-21.027344 z"
     style="opacity:1;fill:#ffffff;fill-opacity:1;stroke:none;stroke-width:3;stroke-linecap:square;stroke-linejoin:miter;stroke-miterlimit:4;stroke-dasharray:none;stroke-opacity:1;paint-order:fill markers stroke" />
</svg>

<svg xmlns="http://www.w3.org/2000/svg" viewBox="0 0 192 192" height="192" width="192">
    <path d="M21.127 31.63A13.315 13.315 0 0 0 7.783 44.972v102.054a13.315 13.315 0 0 0 13.344 13.344h149.746c7.392 0 13.344-5.95 13.344-13.343V44.973a13.315 13.315 0 0 0-13.344-13.344zM55.6 62.89A33.112 33.112 0 0 1 88.71 96a33.112 33.112 0 0 1-7.564 21.03h29.7A33.112 33.112 0 0 1 103.29 96a33.112 33.112 0 0 1 33.11-33.11A33.112 33.112 0 0 1 169.512 96a33.112 33.112 0 0 1-33.112 33.11H58.068v-.122a33.112 33.112 0 0 1-2.468.123A33.112 33.112 0 0 1 22.488 96 33.112 33.112 0 0 1 55.6 62.89zm0 12.083C44.59 74.973 34.572 84.99 34.572 96c0 11.01 10.017 21.03 21.028 21.03 11.01 0 21.027-10.02 21.027-21.03 0-11.01-10.017-21.027-21.027-21.027zm80.8 0c-11.01 0-21.027 10.017-21.027 21.027 0 11.01 10.017 21.03 21.027 21.03 11.01 0 21.028-10.02 21.028-21.03 0-11.01-10.017-21.027-21.028-21.027z" fill="#fff" paint-order="fill markers stroke"/>
</svg>
